!!!OTL: ES FUHR EIN FUHRKNECHT UEBERN RHEIN
!!!ARE: Europa, Mitteleuropa, Deutschland; France, Elsass
!!!SCT: E0186A
!!!YEM: Copyright 1995, estate of Helmut Schaffrath.
**kern
*ICvox
*Ivox
*M2/4
*k[b-e-]
*g:
{8d
=1
4g
4b-
=2
4a
4dd
=3
8cc
8b-
8a}
{8d
=4
4g
4b-
=5
4a
4dd
=6
8cc
8b-
8a}
{8a
=7
8cc
8cc
8cc
8dd
=8
8b-
8a
8g}
{8d
=9
4g
4b-
=10
4a
4dd
=11
8b-
8a
8g}
==
!!!AGN: erzaehlendes Volks - Lied, Sage, Familien - Geschichte, Mord
!!!ONB: ESAC (Essen Associative Code) Database: ERK1
!!!AMT: simple duple
!!!AIN: vox
!!!EED: Helmut Schaffrath
!!!EEV: 1.0
*-
